assets/images/MCCGroupIcons/MCC-Taxi.svg

<svg xmlns="http://www.w3.org/2000/svg" viewBox="0 0 40 40"><style type="text/css">.st0{fill-rule:evenodd;clip-rule:evenodd}</style><path fill-rule="evenodd" d="M2 19.5407L2 34C2 35.1046 2.89543 36 4 36H8C9.10457 36 10 35.1046 10 34V30H30V34C30 35.1046 30.8954 36 32 36H36C37.1046 36 38 35.1046 38 34V19.5407C38 19.0223 37.9496 18.5064 37.8502 18H39C39.5523 18 40 17.5523 40 17V16C40 14.8954 39.1046 14 38 14H36.4L34.689 9.72251C34.252 8.63006 33.3586 7.78626 32.2176 7.49892C29.8653 6.9065 25.3859 6 20 6C14.6141 6 10.1347 6.9065 7.78237 7.49892C6.64139 7.78626 5.74798 8.63006 5.311 9.72251L3.6 14H2C0.895431 14 0 14.8954 0 16V17C0 17.5523 0.447715 18 1 18H2.14975C2.05038 18.5064 2 19.0223 2 19.5407ZM7.34965 15.5608L8.74048 12.2228C8.90883 11.8188 9.20554 11.4843 9.61481 11.329C10.8182 10.8727 13.9149 10 19.9992 10C26.0835 10 29.181 10.8727 30.3849 11.329C30.7943 11.4842 31.0912 11.8189 31.2596 12.2231L32.6502 15.5604C32.8485 16.0364 32.6444 16.5668 32.153 16.723C30.6828 17.1905 27.1101 18 19.9983 18C12.8868 18 9.31576 17.1905 7.84651 16.7231C7.35529 16.5668 7.15139 16.0366 7.34965 15.5608ZM26 22.5615C26 22.2315 26.2246 21.9438 26.5448 21.8638L32.7575 20.3106C33.3886 20.1528 34 20.6302 34 21.2808V22C34 23.1046 33.1046 24 32 24H27.4384C26.644 24 26 23.356 26 22.5615ZM6 21.2808C6 20.6302 6.61139 20.1528 7.24254 20.3106L13.4552 21.8638C13.7754 21.9438 14 22.2315 14 22.5615C14 23.356 13.356 24 12.5616 24H8C6.89543 24 6 23.1046 6 22V21.2808Z" class="st0" clip-rule="evenodd"/></svg>

<svg xmlns="http://www.w3.org/2000/svg" viewBox="0 0 40 40"><style>.st0{fill-rule:evenodd;clip-rule:evenodd}</style><path fill-rule="evenodd" d="M2 19.54V34a2 2 0 0 0 2 2h4a2 2 0 0 0 2-2v-4h20v4a2 2 0 0 0 2 2h4a2 2 0 0 0 2-2V19.54q0-.779-.15-1.54H39a1 1 0 0 0 1-1v-1a2 2 0 0 0-2-2h-1.6l-1.711-4.277c-.437-1.093-1.33-1.937-2.471-2.224A51.3 51.3 0 0 0 20 6c-5.386 0-9.865.907-12.218 1.499-1.14.287-2.034 1.131-2.471 2.224L3.6 14H2a2 2 0 0 0-2 2v1a1 1 0 0 0 1 1h1.15A8 8 0 0 0 2 19.54m5.35-3.98 1.39-3.337c.169-.404.466-.739.875-.894 1.203-.456 4.3-1.329 10.384-1.329s9.182.873 10.386 1.329c.41.155.706.49.875.894l1.39 3.337c.199.476-.006 1.007-.497 1.163C30.683 17.191 27.11 18 19.998 18s-10.682-.81-12.151-1.277c-.492-.156-.696-.686-.497-1.162M26 22.562a.72.72 0 0 1 .545-.697l6.212-1.553a1 1 0 0 1 1.243.97V22a2 2 0 0 1-2 2h-4.562A1.44 1.44 0 0 1 26 22.561m-20-1.28a1 1 0 0 1 1.243-.97l6.212 1.553a.72.72 0 0 1 .545.697c0 .795-.644 1.439-1.438 1.439H8a2 2 0 0 1-2-2z" class="st0" clip-rule="evenodd"/></svg>
